X:20
T:Quite Correct
B:Goulding and d'Almaine's Twenty-four Country Dances For the year 1826.
L:1/8
M:6/8
O:England
Z:Richard Robinson <URL:http://www.qualmograph.org.uk/contact.html>
%%Dancenotes:Balancez 1st & 2d Couple, lead down the middle. & chain, figure of four round
%%UploadedFrom:Goulding_and_dAlmaine.abc
F:http://richardrobinson.tunebook.org.uk/Tune/3566
K:G
d |\
g2g (gf)g | d2d (d^c)d | G2A B2c | d2d def |\
g2g gfg | d2d d^cd | Bed cBA | AGG G2 ||
d|\
d2d d^cd | e2e e^de | f2f fed | a2A AB^c |\
d2d d^cd | e2e efg | fed ^cBc | d3 - d2 !D.C.! |]

